src/Eleven-Dark/16/symbolic/categories/bug-symbolic.svg

<?xml version="1.0" encoding="UTF-8" standalone="no"?>
<svg
   height="16"
   width="16"
   version="1.1"
   id="svg1"
   sodipodi:docname="bug-symbolic.svg"
   inkscape:version="1.4.2 (ebf0e940d0, 2025-05-08)"
   xmlns:inkscape="http://www.inkscape.org/namespaces/inkscape"
   xmlns:sodipodi="http://sodipodi.sourceforge.net/DTD/sodipodi-0.dtd"
   xmlns="http://www.w3.org/2000/svg"
   xmlns:svg="http://www.w3.org/2000/svg">
  <defs
     id="defs1">
     <style
        id="current-color-scheme"
        type="text/css">
        .ColorScheme-Text { color:#dedede; }
        .ColorScheme-NeutralText { color:#f67400; }
        .ColorScheme-PositiveText { color:#37c837; }
        .ColorScheme-NegativeText { color:#f44336; }
        .ColorScheme-Highlight { color:#3daee9; }
     </style>
  </defs>
  <sodipodi:namedview
     id="namedview1"
     pagecolor="#ffffff"
     bordercolor="#000000"
     borderopacity="0.25"
     inkscape:showpageshadow="2"
     inkscape:pageopacity="0.0"
     inkscape:pagecheckerboard="0"
     inkscape:deskcolor="#d1d1d1"
     inkscape:zoom="49.6875"
     inkscape:cx="8"
     inkscape:cy="8"
     inkscape:window-width="1920"
     inkscape:window-height="1010"
     inkscape:window-x="0"
     inkscape:window-y="0"
     inkscape:window-maximized="1"
     inkscape:current-layer="svg1" />
  <path
     id="path1"
     style="fill:currentColor"
     class="ColorScheme-Text"
     d="M 3.9960938 0.99804688 L 3.9960938 1 A 0.5 0.5 0 0 0 3.4960938 1.5 A 0.5 0.5 0 0 0 3.9960938 2 L 3.9960938 2.0097656 A 1.886 2.167 0 0 1 5.4804688 3.1191406 A 4 5 0 0 0 4.2148438 5.3886719 A 6.03 5 0 0 0 4.2285156 5.3984375 A 5.364 5.364 0 0 0 1.4824219 8.1054688 C 0.28242188 10.744469 1.346375 13.810078 3.859375 14.955078 A 0.499 0.499 0 0 0 4.5214844 14.707031 L 5.4140625 12.746094 A 4 5.25 0 0 0 7.9960938 14 A 4 5.25 0 0 0 10.585938 12.746094 L 11.478516 14.707031 C 11.592516 14.959031 11.888625 15.070078 12.140625 14.955078 C 14.653625 13.811078 15.718578 10.745469 14.517578 8.1054688 A 5.365 5.365 0 0 0 11.771484 5.3964844 A 6.03 5 0 0 0 11.779297 5.3925781 A 4 5 0 0 0 10.511719 3.125 A 1.886 2.167 0 0 1 11.996094 2.0097656 L 11.996094 2 A 0.5 0.5 0 0 0 12.496094 1.5 A 0.5 0.5 0 0 0 11.996094 1 A 0.5 0.5 0 0 0 11.826172 1.0292969 A 2.886 3.167 0 0 0 9.7207031 2.4921875 A 4 5 0 0 0 7.9960938 2 A 4 5 0 0 0 6.2773438 2.4960938 A 2.886 3.167 0 0 0 4.1679688 1.0292969 A 0.5 0.5 0 0 0 3.9960938 0.99804688 z M 5.5488281 6.0605469 L 5.5507812 6.0605469 A 6.03 5 0 0 0 7.1835938 6.4472656 L 4.7460938 11.798828 L 3.8417969 13.787109 C 2.1577969 12.731109 1.4975313 10.490531 2.3945312 8.5195312 A 4.295 4.295 0 0 1 4.5390625 6.3671875 C 4.6230625 6.3281875 4.710875 6.3005781 4.796875 6.2675781 A 4.15 4.15 0 0 1 5.4785156 6.0742188 L 5.5488281 6.0605469 z M 10.451172 6.0605469 L 10.498047 6.0683594 C 10.771047 6.1183594 11.039828 6.1977344 11.298828 6.3027344 C 11.345828 6.3217344 11.393453 6.3364219 11.439453 6.3574219 A 4.296 4.296 0 0 1 13.605469 8.5195312 C 14.502469 10.490531 13.842203 12.732062 12.158203 13.789062 L 11.251953 11.792969 L 8.8164062 6.4472656 A 6.03 5 0 0 0 10.451172 6.0605469 z " />
</svg>

<svg height="16" width="16" xmlns="http://www.w3.org/2000/svg"><path d="M3.997 1a.5.5 0 0 0-.5.5.5.5 0 0 0 .5.5v.01A1.886 2.167 0 0 1 5.48 3.12a4 5 0 0 0-1.266 2.268 6.03 5 0 0 0 .014.01 5.364 5.364 0 0 0-2.745 2.708c-1.2 2.639-.136 5.705 2.377 6.85a.499.499 0 0 0 .662-.249l.893-1.96A4 5.25 0 0 0 7.997 14a4 5.25 0 0 0 2.588-1.254l.893 1.961c.114.252.41.363.662.248 2.513-1.144 3.578-4.21 2.377-6.85a5.365 5.365 0 0 0-2.746-2.708 6.03 5 0 0 0 .008-.004 4 5 0 0 0-1.268-2.268 1.886 2.167 0 0 1 1.486-1.115V2a.5.5 0 0 0 .5-.5.5.5 0 0 0-.5-.5.5.5 0 0 0-.17.029A2.886 3.167 0 0 0 9.72 2.492 4 5 0 0 0 7.997 2a4 5 0 0 0-1.72.496 2.886 3.167 0 0 0-2.11-1.467.5.5 0 0 0-.17-.03zM5.55 6.06a6.03 5 0 0 0 1.633.387l-2.436 5.351-.906 1.99c-1.684-1.056-2.344-3.298-1.447-5.269A4.295 4.295 0 0 1 4.54 6.367c.084-.039.17-.067.256-.1a4.15 4.15 0 0 1 .683-.193l.07-.014zm4.902 0l.047.008c.273.05.54.13.799.235.047.019.096.033.142.054a4.296 4.296 0 0 1 2.166 2.162c.897 1.971.237 4.213-1.447 5.27l-.908-1.996-2.434-5.346a6.03 5 0 0 0 1.635-.387z" fill="#dedede" overflow="visible" style="isolation:auto;mix-blend-mode:normal;marker:none" color="#000"/></svg>
